X: 28991
T: Naughton's
R: reel
M: 4/4
K: Amixolydian
A2 EA cded|BG G2 eGdG|EAce a2 ed|1 cedB BAAG:|2 cedB BA A2||
a2 ea a2 ba|geef g2 gb|a2 ea a2 ba|gedB EA A2|
a2 ea a2 ba|geef g2 ga|b2 ba gbag|gedB eBdB||

